src/22/panel/synapse-panel.svg

<svg xmlns="http://www.w3.org/2000/svg" width="22" height="22" version="1.1">
 <defs>
  <style id="current-color-scheme" type="text/css">
   .ColorScheme-Text { color:#dfdfdf; } .ColorScheme-Highlight { color:#4285f4; }
  </style>
 </defs>
 <path style="fill:currentColor" class="ColorScheme-Text" d="M 9 2 L 9 3.65625 L 9 4.1894531 A 6.5 6.5 0 0 0 4.1796875 9 L 6.265625 9 A 4.5 4.5 0 0 1 10.5 6 A 4.5 4.5 0 0 1 14.732422 9 L 16.808594 9 A 6.5 6.5 0 0 0 12 4.1894531 L 12 3 L 12 2 L 9 2 z M 10.5 7 A 3.5 3.5 0 0 0 7 10.5 A 3.5 3.5 0 0 0 7.0410156 11 L 7.4003906 11 L 8.0546875 11 L 12.949219 11 A 2.5 2.5 0 0 1 10.5 13 A 2.5 2.5 0 0 1 8.5019531 12 L 7.3417969 12 A 3.5 3.5 0 0 0 10.5 14 A 3.5 3.5 0 0 0 14 10.5 A 3.5 3.5 0 0 0 13.958984 10 L 13.400391 10 L 12.945312 10 L 8.0507812 10 A 2.5 2.5 0 0 1 10.5 8 A 2.5 2.5 0 0 1 12.498047 9 L 13.658203 9 A 3.5 3.5 0 0 0 10.5 7 z M 4.1835938 12 A 6.5 6.5 0 0 0 9 16.814453 L 9 17 L 9 18 L 9 19 L 12 19 L 12 18 L 12 17 L 12 16.808594 A 6.5 6.5 0 0 0 16.816406 12 L 14.736328 12 A 4.5 4.5 0 0 1 10.5 15 A 4.5 4.5 0 0 1 6.2636719 12 L 4.1835938 12 z"/>
</svg>

<svg xmlns="http://www.w3.org/2000/svg" width="22" height="22"><defs><style id="current-color-scheme" type="text/css">.ColorScheme-Text{color:#dfdfdf;}.ColorScheme-Highlight{color:#5294e2;}</style></defs><defs><style id="current-color-scheme" type="text/css"></style></defs><path d="M9 2v2.189A6.5 6.5 0 0 0 4.18 9h2.086A4.5 4.5 0 0 1 10.5 6a4.5 4.5 0 0 1 4.232 3h2.077A6.5 6.5 0 0 0 12 4.19V2H9zm1.5 5A3.5 3.5 0 0 0 7 10.5a3.5 3.5 0 0 0 .041.5h5.908a2.5 2.5 0 0 1-2.449 2 2.5 2.5 0 0 1-1.998-1h-1.16a3.5 3.5 0 0 0 3.158 2 3.5 3.5 0 0 0 3.5-3.5 3.5 3.5 0 0 0-.041-.5H8.051A2.5 2.5 0 0 1 10.5 8a2.5 2.5 0 0 1 1.998 1h1.16A3.5 3.5 0 0 0 10.5 7zm-6.316 5A6.5 6.5 0 0 0 9 16.814V19h3v-2.191A6.5 6.5 0 0 0 16.816 12h-2.08a4.5 4.5 0 0 1-4.236 3 4.5 4.5 0 0 1-4.236-3h-2.08z" fill="currentColor" class="ColorScheme-Text"/></svg>
